packages/ffe-icons/icons/filled/md/brightness_empty.svg

<svg xmlns="http://www.w3.org/2000/svg" height="24" viewBox="0 -960 960 960" width="24"><path d="M354.32-180.001H252.309q-29.827 0-51.067-21.241-21.241-21.24-21.241-51.067V-354.32l-74.307-75.065q-10.23-10.846-15.462-23.928-5.23-13.082-5.23-26.615 0-13.533 5.23-26.687 5.231-13.154 15.462-24l74.307-75.065v-102.011q0-29.827 21.241-51.067 21.24-21.241 51.067-21.241H354.32l75.065-74.307q10.846-10.231 23.928-15.461 13.082-5.231 26.615-5.231 13.533 0 26.687 5.231 13.154 5.23 24 15.461l75.065 74.307h102.011q29.827 0 51.067 21.241 21.241 21.24 21.241 51.067v102.011l74.307 75.065q10.231 10.846 15.461 23.928 5.231 13.082 5.231 26.615 0 13.533-5.231 26.687-5.23 13.154-15.461 24l-74.307 75.065v102.011q0 29.827-21.241 51.067-21.24 21.241-51.067 21.241H605.68l-75.065 74.307q-10.846 10.23-23.928 15.462-13.082 5.23-26.615 5.23-13.533 0-26.687-5.23-13.154-5.231-24-15.462l-75.065-74.307Z"/></svg>

<svg xmlns="http://www.w3.org/2000/svg" height="24" viewBox="0 -960 960 960" width="24"><path d="M354.32-180H252.31q-29.83 0-51.07-21.24Q180-222.48 180-252.31v-102.01l-74.31-75.07q-10.23-10.84-15.46-23.92Q85-466.4 85-479.93q0-13.53 5.23-26.69 5.23-13.15 15.46-23.99L180-605.68v-102.01q0-29.83 21.24-51.07Q222.48-780 252.31-780h102.01l75.07-74.31q10.84-10.23 23.92-15.46Q466.4-875 479.93-875q13.53 0 26.69 5.23 13.15 5.23 23.99 15.46L605.68-780h102.01q29.83 0 51.07 21.24Q780-737.52 780-707.69v102.01l74.31 75.07q10.23 10.84 15.46 23.92Q875-493.6 875-480.07q0 13.53-5.23 26.69-5.23 13.15-15.46 23.99L780-354.32v102.01q0 29.83-21.24 51.07Q737.52-180 707.69-180H605.68l-75.07 74.31q-10.84 10.23-23.92 15.46Q493.6-85 480.07-85q-13.53 0-26.69-5.23-13.15-5.23-23.99-15.46L354.32-180Z"/></svg>
